X:1
T:Eternity Somewhere
T:Eternity Somewhere
T:Anthony Q. Dyess
T:Anthony Q. Dyess, 1917
T:Public Domain Courtesy of the Cyber Hymnal™
C:Anthony Q. Dyess
Z:Public Domain
Z:Courtesy of the Cyber Hymnal™
%%score ( 1 2 ) ( 3 4 )
L:1/8
Q:1/4=90
M:6/8
K:B
V:1 treble 
V:2 treble 
V:3 bass 
V:4 bass 
V:1
 [B,D]/[CE]/ | [DF][C^E][DF] [DG]2 [DA] | [DB] [DF]4 [DF]/[DF]/ | [DF]2 [CF] [DF]2 [EF]/[EF]/ | %4
w: 1.~When the|world with its woes has|van- ished, And the|glor- ious dawn shall ap-|
w: 2.~While the|King of all kings is|call- ing, Bid- ding|you His glo- ry to|
w: 3.~The re-|deemed shall u- nite with|loved ones, In a|home that’s free from all|
 [DF]3- [DF]2 [DF]/[DF]/ | [DB]>[CA][DB] ([B,D][CE])[DF] | [EG] [GB]4 [^^CG] | %7
w: pear, * Ev- ery|soul shall be called * to|judg- ment, E-|
w: share; * Come to|Him and pre- pare * for|judg- ment, E-|
w: care; * They shall|dwell with the Lord, * their|Sav- ior, E-|
 [DF]2 [^^CG] !fermata![DB]2 [E^c] | [DB]3- [DB]2 ||"^Refrain" [DF] | [DB]2 [DB] ([B,D][CE])[DF] | %11
w: ter- ni- ty some-|where. *|||
w: ter- ni- ty some-|where. *|E-|ter- ni- ty * some-|
w: ter- ni- ty some-|where. *|||
 G3- [EG]2 [EG] | [^EG]2 [EG] [EA]2 [EB] | [EA]3- [EA]2 [DF]/[DF]/ | %14
w: |||
w: where; E- ter-|* ni- ty some-|where; * Ev- ery|
w: |||
 [DB]>[CA][DB] ([B,D][CE])[DF] | [EG] [GB]4 [^^CG] | [DF]2 [^^CG] !fermata![DA]2 [E^c] | %17
w: |||
w: soul shall be called * to|judg- ment, E-|ter- ni- ty some-|
w: |||
 B3- [DB]2 |] %18
w: |
w: where. *|
w: |
V:2
 x | x6 | x6 | x6 | x6 | x6 | x6 | x6 | x5 || x | x6 | E2 E x3 | x6 | x6 | x6 | x6 | x6 | %17
 D2 ^^C x2 |] %18
V:3
 [B,,F,]/[B,,F,]/ | [B,,B,][B,,B,][B,,B,] [B,,B,]2 [B,,F,] | [B,,F,] [B,,B,]4 [B,,B,]/[B,,B,]/ | %3
 [F,B,]2 [E,A,] [D,B,]2 [C,A,]/[C,A,]/ | [B,,B,]3- [B,,B,]2 [B,,B,]/[B,,B,]/ | %5
 [B,,F,]>[B,,F,][B,,F,] [B,,F,]2 [B,,B,] | [E,B,] [E,B,]4 [E,B,] | %7
 [F,B,]2 [^E,B,] !fermata!F,2 [F,,F,] | [B,,F,]3- [B,,F,]2 || [B,,B,] | %10
 [B,,F,]2 [B,,F,] [B,,F,]2 [B,,B,] | [E,B,]2 [E,B,] [E,B,]2 [E,B,] | [C,C]2 [C,C] [C,C]2 [C,C] | %13
 [F,C]3- [F,C]2 [B,,B,]/[B,,B,]/ | [B,,F,]>[B,,F,][B,,F,] [B,,F,]2 [B,,B,] | %15
 [E,B,] [E,B,]4 [^E,B,] | [F,B,]2 [^E,B,] F,2 [F,,F,] | (F,2 ^E, [B,,F,]2) |] %18
V:4
 x | x6 | x6 | x6 | x6 | x6 | x6 | x3 F,2 x | x5 || x | x6 | x6 | x6 | x6 | x6 | x6 | x3 F,2 x | %17
 B,,3- x2 |] %18

